components/Common/Svg/svgs/titledAndroidSdk.svg

<svg
  width="234"
  height="106"
  viewBox="0 0 234 106"
  fill="none"
  xmlns="http://www.w3.org/2000/svg"
>
  <path
    d="M71.0549 93.21H65.5829L64.5749 96H62.8469L67.3829 83.526H69.2729L73.7909 96H72.0629L71.0549 93.21ZM70.5869 91.878L68.3189 85.542L66.0509 91.878H70.5869ZM80.5738 85.956C81.7738 85.956 82.7458 86.322 83.4898 87.054C84.2338 87.774 84.6058 88.818 84.6058 90.186V96H82.9858V90.42C82.9858 89.436 82.7398 88.686 82.2478 88.17C81.7558 87.642 81.0838 87.378 80.2318 87.378C79.3678 87.378 78.6778 87.648 78.1618 88.188C77.6578 88.728 77.4058 89.514 77.4058 90.546V96H75.7678V86.136H77.4058V87.54C77.7298 87.036 78.1678 86.646 78.7198 86.37C79.2838 86.094 79.9018 85.956 80.5738 85.956ZM86.6695 91.032C86.6695 90.024 86.8735 89.142 87.2815 88.386C87.6895 87.618 88.2475 87.024 88.9555 86.604C89.6755 86.184 90.4795 85.974 91.3675 85.974C92.1355 85.974 92.8495 86.154 93.5095 86.514C94.1695 86.862 94.6735 87.324 95.0215 87.9V82.68H96.6775V96H95.0215V94.146C94.6975 94.734 94.2175 95.22 93.5815 95.604C92.9455 95.976 92.2015 96.162 91.3495 96.162C90.4735 96.162 89.6755 95.946 88.9555 95.514C88.2475 95.082 87.6895 94.476 87.2815 93.696C86.8735 92.916 86.6695 92.028 86.6695 91.032ZM95.0215 91.05C95.0215 90.306 94.8715 89.658 94.5715 89.106C94.2715 88.554 93.8635 88.134 93.3475 87.846C92.8435 87.546 92.2855 87.396 91.6735 87.396C91.0615 87.396 90.5035 87.54 89.9995 87.828C89.4955 88.116 89.0935 88.536 88.7935 89.088C88.4935 89.64 88.3435 90.288 88.3435 91.032C88.3435 91.788 88.4935 92.448 88.7935 93.012C89.0935 93.564 89.4955 93.99 89.9995 94.29C90.5035 94.578 91.0615 94.722 91.6735 94.722C92.2855 94.722 92.8435 94.578 93.3475 94.29C93.8635 93.99 94.2715 93.564 94.5715 93.012C94.8715 92.448 95.0215 91.794 95.0215 91.05ZM101.084 87.738C101.372 87.174 101.78 86.736 102.308 86.424C102.848 86.112 103.502 85.956 104.27 85.956V87.648H103.838C102.002 87.648 101.084 88.644 101.084 90.636V96H99.4456V86.136H101.084V87.738ZM110.462 96.162C109.538 96.162 108.698 95.952 107.942 95.532C107.198 95.112 106.61 94.518 106.178 93.75C105.758 92.97 105.548 92.07 105.548 91.05C105.548 90.042 105.764 89.154 106.196 88.386C106.64 87.606 107.24 87.012 107.996 86.604C108.752 86.184 109.598 85.974 110.534 85.974C111.47 85.974 112.316 86.184 113.072 86.604C113.828 87.012 114.422 87.6 114.854 88.368C115.298 89.136 115.52 90.03 115.52 91.05C115.52 92.07 115.292 92.97 114.836 93.75C114.392 94.518 113.786 95.112 113.018 95.532C112.25 95.952 111.398 96.162 110.462 96.162ZM110.462 94.722C111.05 94.722 111.602 94.584 112.118 94.308C112.634 94.032 113.048 93.618 113.36 93.066C113.684 92.514 113.846 91.842 113.846 91.05C113.846 90.258 113.69 89.586 113.378 89.034C113.066 88.482 112.658 88.074 112.154 87.81C111.65 87.534 111.104 87.396 110.516 87.396C109.916 87.396 109.364 87.534 108.86 87.81C108.368 88.074 107.972 88.482 107.672 89.034C107.372 89.586 107.222 90.258 107.222 91.05C107.222 91.854 107.366 92.532 107.654 93.084C107.954 93.636 108.35 94.05 108.842 94.326C109.334 94.59 109.874 94.722 110.462 94.722ZM118.52 84.534C118.208 84.534 117.944 84.426 117.728 84.21C117.512 83.994 117.404 83.73 117.404 83.418C117.404 83.106 117.512 82.842 117.728 82.626C117.944 82.41 118.208 82.302 118.52 82.302C118.82 82.302 119.072 82.41 119.276 82.626C119.492 82.842 119.6 83.106 119.6 83.418C119.6 83.73 119.492 83.994 119.276 84.21C119.072 84.426 118.82 84.534 118.52 84.534ZM119.312 86.136V96H117.674V86.136H119.312ZM121.492 91.032C121.492 90.024 121.696 89.142 122.104 88.386C122.512 87.618 123.07 87.024 123.778 86.604C124.498 86.184 125.302 85.974 126.19 85.974C126.958 85.974 127.672 86.154 128.332 86.514C128.992 86.862 129.496 87.324 129.844 87.9V82.68H131.5V96H129.844V94.146C129.52 94.734 129.04 95.22 128.404 95.604C127.768 95.976 127.024 96.162 126.172 96.162C125.296 96.162 124.498 95.946 123.778 95.514C123.07 95.082 122.512 94.476 122.104 93.696C121.696 92.916 121.492 92.028 121.492 91.032ZM129.844 91.05C129.844 90.306 129.694 89.658 129.394 89.106C129.094 88.554 128.686 88.134 128.17 87.846C127.666 87.546 127.108 87.396 126.496 87.396C125.884 87.396 125.326 87.54 124.822 87.828C124.318 88.116 123.916 88.536 123.616 89.088C123.316 89.64 123.166 90.288 123.166 91.032C123.166 91.788 123.316 92.448 123.616 93.012C123.916 93.564 124.318 93.99 124.822 94.29C125.326 94.578 125.884 94.722 126.496 94.722C127.108 94.722 127.666 94.578 128.17 94.29C128.686 93.99 129.094 93.564 129.394 93.012C129.694 92.448 129.844 91.794 129.844 91.05ZM143.045 96.126C142.217 96.126 141.473 95.982 140.813 95.694C140.165 95.394 139.655 94.986 139.283 94.47C138.911 93.942 138.719 93.336 138.707 92.652H140.453C140.513 93.24 140.753 93.738 141.173 94.146C141.605 94.542 142.229 94.74 143.045 94.74C143.825 94.74 144.437 94.548 144.881 94.164C145.337 93.768 145.565 93.264 145.565 92.652C145.565 92.172 145.433 91.782 145.169 91.482C144.905 91.182 144.575 90.954 144.179 90.798C143.783 90.642 143.249 90.474 142.577 90.294C141.749 90.078 141.083 89.862 140.579 89.646C140.087 89.43 139.661 89.094 139.301 88.638C138.953 88.17 138.779 87.546 138.779 86.766C138.779 86.082 138.953 85.476 139.301 84.948C139.649 84.42 140.135 84.012 140.759 83.724C141.395 83.436 142.121 83.292 142.937 83.292C144.113 83.292 145.073 83.586 145.817 84.174C146.573 84.762 146.999 85.542 147.095 86.514H145.295C145.235 86.034 144.983 85.614 144.539 85.254C144.095 84.882 143.507 84.696 142.775 84.696C142.091 84.696 141.533 84.876 141.101 85.236C140.669 85.584 140.453 86.076 140.453 86.712C140.453 87.168 140.579 87.54 140.831 87.828C141.095 88.116 141.413 88.338 141.785 88.494C142.169 88.638 142.703 88.806 143.387 88.998C144.215 89.226 144.881 89.454 145.385 89.682C145.889 89.898 146.321 90.24 146.681 90.708C147.041 91.164 147.221 91.788 147.221 92.58C147.221 93.192 147.059 93.768 146.735 94.308C146.411 94.848 145.931 95.286 145.295 95.622C144.659 95.958 143.909 96.126 143.045 96.126ZM153.537 83.454C154.905 83.454 156.087 83.712 157.083 84.228C158.091 84.732 158.859 85.458 159.387 86.406C159.927 87.354 160.197 88.47 160.197 89.754C160.197 91.038 159.927 92.154 159.387 93.102C158.859 94.038 158.091 94.758 157.083 95.262C156.087 95.754 154.905 96 153.537 96H149.631V83.454H153.537ZM153.537 94.65C155.157 94.65 156.393 94.224 157.245 93.372C158.097 92.508 158.523 91.302 158.523 89.754C158.523 88.194 158.091 86.976 157.227 86.1C156.375 85.224 155.145 84.786 153.537 84.786H151.269V94.65H153.537ZM169.162 96L163.996 90.276V96H162.358V83.454H163.996V89.268L169.18 83.454H171.25L165.562 89.736L171.304 96H169.162Z"
    fill="#A0A0A0"
  ></path>
  <path
    d="M22.1226 20.0256C25.1472 20.0256 27.6595 21.627 28.8547 23.3534V20.451H33.4648V41.9941H30.1475C29.9743 41.9948 29.8027 41.9604 29.6426 41.8927C29.4825 41.8251 29.337 41.7256 29.2145 41.6C29.0921 41.4744 28.9951 41.3251 28.9291 41.1609C28.8632 40.9966 28.8296 40.8206 28.8303 40.643V39.0916C27.6595 40.8431 25.1472 42.4445 22.1226 42.4445C16.3661 42.4445 12 37.3902 12 31.235C12 25.0799 16.3417 20.0256 22.1226 20.0256ZM22.9275 24.3292C19.1956 24.3292 16.6588 27.3568 16.6588 31.235C16.6588 35.1133 19.1712 38.1408 22.9275 38.1408C26.6595 38.1408 29.1962 35.1133 29.1962 31.235C29.1962 27.3568 26.7082 24.3292 22.9275 24.3292ZM38.709 20.451H43.3434V23.3784C44.6118 21.2266 47.0022 20.0256 49.7341 20.0256C54.6124 20.0256 57.759 23.5536 57.759 29.0332V41.9941H54.4417C54.2685 41.9948 54.0969 41.9604 53.9368 41.8927C53.7767 41.8251 53.6312 41.7256 53.5088 41.6C53.3863 41.4744 53.2893 41.3251 53.2234 41.1609C53.1574 40.9966 53.1238 40.8206 53.1245 40.643V29.8088C53.1245 26.406 51.4415 24.3292 48.7584 24.3292C45.6851 24.3292 43.3434 26.7813 43.3434 31.3852V41.9941H40.0262C39.853 41.9948 39.6814 41.9604 39.5213 41.8927C39.3611 41.8251 39.2157 41.7256 39.0932 41.6C38.9708 41.4744 38.8738 41.3251 38.8078 41.1609C38.7419 40.9966 38.7083 40.8206 38.709 40.643V20.451ZM71.5403 20.0256C74.5649 20.0256 77.0773 21.627 78.2725 23.3534V9.69192H82.8825V42.0191H79.5652C79.3921 42.0198 79.2205 41.9854 79.0603 41.9177C78.9002 41.8501 78.7547 41.7506 78.6323 41.625C78.5098 41.4994 78.4128 41.3501 78.3469 41.1859C78.281 41.0216 78.2474 40.8456 78.2481 40.668V39.1167C77.0773 40.8431 74.5405 42.4445 71.516 42.4445C65.7595 42.4445 61.3934 37.3902 61.3934 31.235C61.4178 25.0799 65.7839 20.0256 71.5403 20.0256ZM72.3697 24.3292C68.6377 24.3292 66.101 27.3568 66.101 31.235C66.101 35.1133 68.6133 38.1408 72.3697 38.1408C76.1016 38.1408 78.6384 35.1133 78.6384 31.235C78.6384 27.3568 76.1016 24.3292 72.3697 24.3292ZM88.1268 20.451H92.7368V24.2792C93.1412 23.1014 93.8899 22.0802 94.8807 21.3548C95.8716 20.6294 97.0565 20.2352 98.2737 20.2258C98.8795 20.2243 99.484 20.283 100.079 20.4009V25.28C99.3318 25.0217 98.5497 24.8865 97.7615 24.8797C95.1028 24.8797 92.7124 27.1566 92.7124 31.4852V41.9941H89.3951C89.222 41.9948 89.0504 41.9604 88.8902 41.8927C88.7301 41.8251 88.5846 41.7256 88.4622 41.6C88.3397 41.4744 88.2427 41.3251 88.1768 41.1609C88.1108 40.9966 88.0773 40.8206 88.078 40.643V20.451H88.1268ZM112.567 42.4445C106.347 42.4445 101.567 37.4903 101.567 31.235C101.567 24.9798 106.347 20.0256 112.567 20.0256C118.787 20.0256 123.568 24.9798 123.568 31.235C123.568 37.4903 118.787 42.4445 112.567 42.4445ZM112.567 38.0408C116.275 38.0408 118.86 35.0633 118.86 31.235C118.86 27.4068 116.25 24.4293 112.567 24.4293C108.835 24.4293 106.225 27.4068 106.225 31.235C106.225 35.0633 108.835 38.0408 112.567 38.0408ZM129.617 15.747C128.799 15.747 128.014 15.4135 127.435 14.82C126.857 14.2264 126.532 13.4213 126.532 12.5818C126.532 11.7424 126.857 10.9373 127.435 10.3437C128.014 9.75016 128.799 9.41669 129.617 9.41669C130.436 9.41669 131.22 9.75016 131.799 10.3437C132.378 10.9373 132.703 11.7424 132.703 12.5818C132.703 13.4213 132.378 14.2264 131.799 14.82C131.22 15.4135 130.436 15.747 129.617 15.747ZM127.324 20.451H131.934V41.9941H128.617C128.444 41.9948 128.272 41.9604 128.112 41.8927C127.952 41.8251 127.807 41.7256 127.684 41.6C127.562 41.4744 127.465 41.3251 127.399 41.1609C127.333 40.9966 127.299 40.8206 127.3 40.643C127.324 40.643 127.324 20.451 127.324 20.451ZM145.862 20.0256C148.887 20.0256 151.399 21.627 152.594 23.3534V9.69192H157.204V42.0191H153.887C153.714 42.0198 153.542 41.9854 153.382 41.9177C153.222 41.8501 153.077 41.7506 152.954 41.625C152.832 41.4994 152.735 41.3501 152.669 41.1859C152.603 41.0216 152.569 40.8456 152.57 40.668V39.1167C151.399 40.8431 148.862 42.4445 145.838 42.4445C140.081 42.4445 135.715 37.3902 135.715 31.235C135.74 25.0799 140.106 20.0256 145.862 20.0256ZM146.716 24.3292C142.984 24.3292 140.447 27.3568 140.447 31.235C140.447 35.1133 142.959 38.1408 146.716 38.1408C150.448 38.1408 152.985 35.1133 152.985 31.235C152.985 27.3568 150.448 24.3292 146.716 24.3292Z"
    fill="#6A6A6A"
  ></path>
  <path
    d="M208.045 33.2489C207.585 33.2489 207.136 33.1102 206.754 32.8503C206.372 32.5904 206.074 32.221 205.899 31.7888C205.723 31.3566 205.677 30.881 205.766 30.4222C205.856 29.9634 206.077 29.5419 206.402 29.2112C206.727 28.8804 207.141 28.6551 207.592 28.5638C208.042 28.4726 208.509 28.5194 208.934 28.6984C209.358 28.8775 209.721 29.1806 209.976 29.5696C210.232 29.9585 210.368 30.4158 210.368 30.8836C210.368 31.5109 210.123 32.1124 209.687 32.556C209.252 32.9995 208.661 33.2488 208.045 33.2489ZM182.466 33.2489C182.007 33.2489 181.557 33.1102 181.175 32.8503C180.793 32.5904 180.496 32.221 180.32 31.7888C180.144 31.3566 180.098 30.881 180.188 30.4222C180.277 29.9634 180.498 29.5419 180.823 29.2112C181.148 28.8804 181.562 28.6551 182.013 28.5638C182.464 28.4726 182.931 28.5194 183.355 28.6984C183.78 28.8775 184.142 29.1806 184.398 29.5696C184.653 29.9585 184.789 30.4158 184.789 30.8836C184.789 31.5109 184.544 32.1124 184.109 32.556C183.673 32.9995 183.082 33.2488 182.466 33.2489ZM208.868 19.0574L213.514 10.9022C213.577 10.7906 213.617 10.6674 213.633 10.5398C213.649 10.4122 213.64 10.2826 213.606 10.1586C213.572 10.0346 213.515 9.91856 213.438 9.81714C213.36 9.71572 213.263 9.63094 213.153 9.56765C213.043 9.50436 212.922 9.46382 212.797 9.44835C212.671 9.43288 212.544 9.4428 212.422 9.47752C212.301 9.51225 212.187 9.5711 212.088 9.6507C211.989 9.73029 211.906 9.82907 211.844 9.94135L207.149 18.1951C203.421 16.4603 199.367 15.5693 195.268 15.5834C191.163 15.5732 187.104 16.4552 183.361 18.1704L178.643 9.91671C178.581 9.80443 178.498 9.70566 178.399 9.62606C178.3 9.54646 178.186 9.48761 178.064 9.45288C177.943 9.41816 177.816 9.40824 177.69 9.42371C177.565 9.43918 177.443 9.47972 177.334 9.54301C177.224 9.6063 177.127 9.69109 177.049 9.7925C176.972 9.89392 176.914 10.01 176.881 10.134C176.847 10.258 176.838 10.3875 176.854 10.5151C176.87 10.6427 176.91 10.7659 176.973 10.8776L181.595 19.0328C177.598 21.2519 174.209 24.4507 171.733 28.3398C169.257 32.2288 167.772 36.6852 167.414 41.3055H223C222.653 36.6916 221.178 32.2394 218.71 28.3537C216.241 24.4681 212.858 21.2724 208.868 19.0574Z"
    fill="#A3A3A3"
  ></path>
</svg>

<svg width="234" height="106" viewBox="0 0 234 106" fill="none" xmlns="http://www.w3.org/2000/svg"><path d="M71.055 93.21h-5.472L64.575 96h-1.728l4.536-12.474h1.89L73.79 96h-1.728l-1.008-2.79Zm-.468-1.332-2.268-6.336-2.268 6.336h4.536Zm9.987-5.922c1.2 0 2.172.366 2.916 1.098.744.72 1.116 1.764 1.116 3.132V96h-1.62v-5.58c0-.984-.246-1.734-.738-2.25-.492-.528-1.164-.792-2.016-.792-.864 0-1.554.27-2.07.81-.504.54-.756 1.326-.756 2.358V96h-1.638v-9.864h1.638v1.404a3.266 3.266 0 0 1 1.314-1.17 4.16 4.16 0 0 1 1.854-.414Zm6.096 5.076c0-1.008.204-1.89.611-2.646a4.446 4.446 0 0 1 1.674-1.782c.72-.42 1.525-.63 2.413-.63.767 0 1.482.18 2.142.54.66.348 1.163.81 1.511 1.386v-5.22h1.656V96h-1.656v-1.854c-.323.588-.803 1.074-1.44 1.458-.636.372-1.38.558-2.231.558a4.564 4.564 0 0 1-2.394-.648c-.709-.432-1.267-1.038-1.675-1.818-.407-.78-.612-1.668-.612-2.664Zm8.352.018c0-.744-.15-1.392-.45-1.944a3.098 3.098 0 0 0-1.225-1.26 3.211 3.211 0 0 0-1.673-.45c-.613 0-1.17.144-1.675.432a3.134 3.134 0 0 0-1.206 1.26c-.3.552-.45 1.2-.45 1.944 0 .756.15 1.416.45 1.98.3.552.703.978 1.206 1.278a3.314 3.314 0 0 0 1.675.432c.611 0 1.17-.144 1.673-.432.517-.3.925-.726 1.225-1.278.3-.564.45-1.218.45-1.962Zm6.062-3.312a3.16 3.16 0 0 1 1.224-1.314c.54-.312 1.194-.468 1.962-.468v1.692h-.432c-1.836 0-2.754.996-2.754 2.988V96h-1.638v-9.864h1.638v1.602Zm9.378 8.424c-.924 0-1.764-.21-2.52-.63a4.58 4.58 0 0 1-1.764-1.782c-.42-.78-.63-1.68-.63-2.7 0-1.008.216-1.896.648-2.664a4.51 4.51 0 0 1 1.8-1.782c.756-.42 1.602-.63 2.538-.63.936 0 1.782.21 2.538.63.756.408 1.35.996 1.782 1.764.444.768.666 1.662.666 2.682s-.228 1.92-.684 2.7a4.634 4.634 0 0 1-1.818 1.782c-.768.42-1.62.63-2.556.63Zm0-1.44c.588 0 1.14-.138 1.656-.414.516-.276.93-.69 1.242-1.242.324-.552.486-1.224.486-2.016s-.156-1.464-.468-2.016c-.312-.552-.72-.96-1.224-1.224a3.356 3.356 0 0 0-1.638-.414c-.6 0-1.152.138-1.656.414-.492.264-.888.672-1.188 1.224-.3.552-.45 1.224-.45 2.016 0 .804.144 1.482.432 2.034.3.552.696.966 1.188 1.242a3.372 3.372 0 0 0 1.62.396Zm8.058-10.188c-.312 0-.576-.108-.792-.324a1.077 1.077 0 0 1-.324-.792c0-.312.108-.576.324-.792.216-.216.48-.324.792-.324.3 0 .552.108.756.324.216.216.324.48.324.792 0 .312-.108.576-.324.792a.998.998 0 0 1-.756.324Zm.792 1.602V96h-1.638v-9.864h1.638Zm2.18 4.896c0-1.008.204-1.89.612-2.646a4.446 4.446 0 0 1 1.674-1.782c.72-.42 1.524-.63 2.412-.63.768 0 1.482.18 2.142.54.66.348 1.164.81 1.512 1.386v-5.22h1.656V96h-1.656v-1.854c-.324.588-.804 1.074-1.44 1.458-.636.372-1.38.558-2.232.558a4.564 4.564 0 0 1-2.394-.648c-.708-.432-1.266-1.038-1.674-1.818-.408-.78-.612-1.668-.612-2.664Zm8.352.018c0-.744-.15-1.392-.45-1.944a3.098 3.098 0 0 0-1.224-1.26 3.211 3.211 0 0 0-1.674-.45c-.612 0-1.17.144-1.674.432a3.134 3.134 0 0 0-1.206 1.26c-.3.552-.45 1.2-.45 1.944 0 .756.15 1.416.45 1.98.3.552.702.978 1.206 1.278a3.314 3.314 0 0 0 1.674.432c.612 0 1.17-.144 1.674-.432.516-.3.924-.726 1.224-1.278.3-.564.45-1.218.45-1.962Zm13.201 5.076c-.828 0-1.572-.144-2.232-.432-.648-.3-1.158-.708-1.53-1.224a3.178 3.178 0 0 1-.576-1.818h1.746c.06.588.3 1.086.72 1.494.432.396 1.056.594 1.872.594.78 0 1.392-.192 1.836-.576.456-.396.684-.9.684-1.512 0-.48-.132-.87-.396-1.17a2.53 2.53 0 0 0-.99-.684c-.396-.156-.93-.324-1.602-.504-.828-.216-1.494-.432-1.998-.648a3.318 3.318 0 0 1-1.278-1.008c-.348-.468-.522-1.092-.522-1.872 0-.684.174-1.29.522-1.818.348-.528.834-.936 1.458-1.224.636-.288 1.362-.432 2.178-.432 1.176 0 2.136.294 2.88.882.756.588 1.182 1.368 1.278 2.34h-1.8c-.06-.48-.312-.9-.756-1.26-.444-.372-1.032-.558-1.764-.558-.684 0-1.242.18-1.674.54-.432.348-.648.84-.648 1.476 0 .456.126.828.378 1.116.264.288.582.51.954.666.384.144.918.312 1.602.504.828.228 1.494.456 1.998.684.504.216.936.558 1.296 1.026.36.456.54 1.08.54 1.872 0 .612-.162 1.188-.486 1.728-.324.54-.804.978-1.44 1.314-.636.336-1.386.504-2.25.504Zm10.492-12.672c1.368 0 2.55.258 3.546.774 1.008.504 1.776 1.23 2.304 2.178.54.948.81 2.064.81 3.348 0 1.284-.27 2.4-.81 3.348-.528.936-1.296 1.656-2.304 2.16-.996.492-2.178.738-3.546.738h-3.906V83.454h3.906Zm0 11.196c1.62 0 2.856-.426 3.708-1.278.852-.864 1.278-2.07 1.278-3.618 0-1.56-.432-2.778-1.296-3.654-.852-.876-2.082-1.314-3.69-1.314h-2.268v9.864h2.268ZM169.162 96l-5.166-5.724V96h-1.638V83.454h1.638v5.814l5.184-5.814h2.07l-5.688 6.282L171.304 96h-2.142Z" fill="#A0A0A0"/><path d="M22.123 20.026c3.024 0 5.537 1.601 6.732 3.327v-2.902h4.61v21.543h-3.318a1.282 1.282 0 0 1-.932-.394 1.35 1.35 0 0 1-.385-.957v-1.551c-1.17 1.751-3.683 3.352-6.707 3.352C16.366 42.444 12 37.39 12 31.235c0-6.155 4.342-11.21 10.123-11.21Zm.804 4.303c-3.731 0-6.268 3.028-6.268 6.906 0 3.878 2.512 6.906 6.268 6.906 3.733 0 6.27-3.028 6.27-6.906 0-3.878-2.489-6.906-6.27-6.906Zm15.782-3.878h4.634v2.927c1.269-2.151 3.66-3.352 6.391-3.352 4.878 0 8.025 3.528 8.025 9.007v12.961h-3.317a1.282 1.282 0 0 1-.933-.394 1.348 1.348 0 0 1-.385-.957V29.809c0-3.403-1.683-5.48-4.366-5.48-3.073 0-5.415 2.452-5.415 7.056v10.61h-3.317a1.282 1.282 0 0 1-.933-.395 1.35 1.35 0 0 1-.384-.957V20.451Zm32.831-.425c3.025 0 5.537 1.601 6.732 3.327V9.692h4.61v32.327h-3.317a1.283 1.283 0 0 1-.933-.394 1.348 1.348 0 0 1-.384-.957v-1.551c-1.17 1.726-3.708 3.328-6.732 3.328-5.757 0-10.123-5.055-10.123-11.21.025-6.155 4.39-11.21 10.147-11.21Zm.83 4.303c-3.732 0-6.269 3.028-6.269 6.906 0 3.878 2.512 6.906 6.269 6.906 3.732 0 6.268-3.028 6.268-6.906 0-3.878-2.536-6.906-6.268-6.906Zm15.757-3.878h4.61v3.828a6.058 6.058 0 0 1 2.144-2.924 5.818 5.818 0 0 1 3.393-1.13 9.17 9.17 0 0 1 1.805.176v4.879a7.283 7.283 0 0 0-2.317-.4c-2.66 0-5.05 2.277-5.05 6.605v10.51h-3.317a1.283 1.283 0 0 1-.933-.395 1.348 1.348 0 0 1-.384-.957V20.451h.049Zm24.44 21.993c-6.22 0-11-4.954-11-11.209s4.78-11.21 11-11.21 11.001 4.955 11.001 11.21c0 6.255-4.781 11.21-11.001 11.21Zm0-4.403c3.708 0 6.293-2.978 6.293-6.806s-2.61-6.806-6.293-6.806c-3.732 0-6.342 2.978-6.342 6.806s2.61 6.806 6.342 6.806Zm17.05-22.294a3.049 3.049 0 0 1-2.182-.927 3.21 3.21 0 0 1-.903-2.238c0-.84.325-1.645.903-2.238a3.048 3.048 0 0 1 2.182-.927c.819 0 1.603.333 2.182.927.579.593.904 1.398.904 2.238 0 .84-.325 1.644-.904 2.238a3.047 3.047 0 0 1-2.182.927Zm-2.293 4.704h4.61v21.543h-3.317a1.283 1.283 0 0 1-.933-.394 1.356 1.356 0 0 1-.384-.957c.024 0 .024-20.192.024-20.192Zm18.538-.425c3.025 0 5.537 1.601 6.732 3.327V9.692h4.61v32.327h-3.317a1.283 1.283 0 0 1-.933-.394 1.356 1.356 0 0 1-.384-.957v-1.551c-1.171 1.726-3.708 3.328-6.732 3.328-5.757 0-10.123-5.055-10.123-11.21.025-6.155 4.391-11.21 10.147-11.21Zm.854 4.303c-3.732 0-6.269 3.028-6.269 6.906 0 3.878 2.512 6.906 6.269 6.906 3.732 0 6.269-3.028 6.269-6.906 0-3.878-2.537-6.906-6.269-6.906Z" fill="#6A6A6A"/><path d="M208.045 33.249c-.46 0-.909-.139-1.291-.399a2.35 2.35 0 0 1-.855-1.061 2.41 2.41 0 0 1-.133-1.367c.09-.459.311-.88.636-1.21a2.286 2.286 0 0 1 2.532-.513c.424.178.787.482 1.042.87.256.39.392.847.392 1.315 0 .627-.245 1.228-.681 1.672a2.3 2.3 0 0 1-1.642.693Zm-25.579 0c-.459 0-.909-.139-1.291-.399a2.357 2.357 0 0 1-.855-1.061 2.4 2.4 0 0 1 .503-2.578c.325-.33.739-.556 1.19-.647a2.284 2.284 0 0 1 1.342.134c.425.18.787.483 1.043.872a2.397 2.397 0 0 1-.289 2.986 2.305 2.305 0 0 1-1.643.693Zm26.402-14.192 4.646-8.155a.986.986 0 0 0-.361-1.334.947.947 0 0 0-1.309.373l-4.695 8.254a27.926 27.926 0 0 0-11.881-2.612 28.403 28.403 0 0 0-11.907 2.587l-4.718-8.253a.95.95 0 0 0-1.762.217.98.98 0 0 0 .092.744l4.622 8.155a27.562 27.562 0 0 0-9.862 9.307 28.205 28.205 0 0 0-4.319 12.966H223a28.092 28.092 0 0 0-4.29-12.952 27.47 27.47 0 0 0-9.842-9.297Z" fill="#A3A3A3"/></svg>
